; generated by Slic3r 0.9.7 on 2012-12-06 at 10:17:23

; layer_height = 0.25
; perimeters = 3
; top_solid_layers = 3
; bottom_solid_layers = 3
; fill_density = 0.2
; perimeter_speed = 30
; infill_speed = 60
; travel_speed = 200
; scale = 1
; nozzle_diameter = 0.35
; filament_diameter = 2.85
; extrusion_multiplier = 1
; perimeters extrusion width = 0.39mm
; infill extrusion width = 0.39mm
; first layer extrusion width = 0.39mm

M190 S60 ; wait for bed temperature to be reached
M104 S175 ; set temperature
G28 ; home all axes
M109 S175 ; wait for temperature to be reached
G90 ; use absolute coordinates
G21 ; set units to millimeters
G92 E0
M82 ; use absolute distances for extrusion
G1 F1800.000 E-1.00000
G92 E0
G1 Z0.250 F12000.000
G1 X54.428 Y75.198
G1 F1800.000 E1.00000
G1 X54.658 Y75.038 F900.000 E1.00423
G1 X55.128 Y74.758 E1.01248
G1 X55.878 Y74.408 E1.02496
G1 X56.388 Y74.228 E1.03312
G1 X56.918 Y74.078 E1.04142
G1 X57.458 Y73.978 E1.04970
G1 X57.728 Y73.938 E1.05382
G1 X58.278 Y73.898 E1.06214
G1 X131.708 Y73.898 E2.16958
G1 X132.258 Y73.938 E2.17789
G1 X133.068 Y74.078 E2.19029
G1 X133.598 Y74.228 E2.19860
G1 X134.368 Y74.518 E2.21101
G1 X134.858 Y74.758 E2.21924
G1 X135.328 Y75.038 E2.22749
G1 X135.988 Y75.528 E2.23988
G1 X136.398 Y75.898 E2.24821
G1 X136.778 Y76.288 E2.25643
G1 X137.128 Y76.708 E2.26467
G1 X137.448 Y77.158 E2.27300
G1 X137.728 Y77.628 E2.28125
G1 X137.968 Y78.118 E2.28948
G1 X138.258 Y78.888 E2.30189
G1 X138.408 Y79.418 E2.31019
G1 X138.508 Y79.958 E2.31848
G1 X138.548 Y80.228 E2.32259
G1 X138.588 Y80.778 E2.33091
G1 X138.588 Y109.208 E2.75968
G1 X138.548 Y109.758 E2.76800
G1 X138.408 Y110.568 E2.78039
G1 X138.258 Y111.098 E2.78870
G1 X138.078 Y111.608 E2.79686
G1 X137.728 Y112.358 E2.80934
G1 X137.448 Y112.828 E2.81759
G1 X137.288 Y113.058 E2.82182
G1 X136.778 Y113.698 E2.83416
G1 X136.198 Y114.278 E2.84653
G1 X135.778 Y114.628 E2.85477
G1 X135.328 Y114.948 E2.86310
G1 X134.858 Y115.228 E2.87135
G1 X134.368 Y115.468 E2.87958
G1 X133.858 Y115.668 E2.88784
G1 X133.068 Y115.908 E2.90030
G1 X132.258 Y116.048 E2.91269
G1 X131.708 Y116.088 E2.92101
G1 X58.278 Y116.088 E4.02845
G1 X57.728 Y116.048 E4.03677
G1 X56.918 Y115.908 E4.04916
G1 X56.388 Y115.758 E4.05747
G1 X55.618 Y115.468 E4.06988
G1 X55.128 Y115.228 E4.07811
G1 X54.658 Y114.948 E4.08636
G1 X53.998 Y114.458 E4.09876
G1 X53.588 Y114.088 E4.10708
G1 X53.208 Y113.698 E4.11530
G1 X52.858 Y113.278 E4.12354
G1 X52.538 Y112.828 E4.13187
G1 X52.258 Y112.358 E4.14012
G1 X52.018 Y111.868 E4.14835
G1 X51.728 Y111.098 E4.16076
G1 X51.578 Y110.568 E4.16907
G1 X51.478 Y110.028 E4.17735
G1 X51.438 Y109.758 E4.18146
G1 X51.398 Y109.208 E4.18978
G1 X51.398 Y80.778 E4.61855
G1 X51.438 Y80.228 E4.62687
G1 X51.578 Y79.418 E4.63926
G1 X51.728 Y78.888 E4.64757
G1 X52.018 Y78.118 E4.65998
G1 X52.258 Y77.628 E4.66821
G1 X52.398 Y77.388 E4.67240
G1 X52.538 Y77.158 E4.67646
G1 X52.858 Y76.708 E4.68479
G1 X53.208 Y76.288 E4.69303
G1 X53.788 Y75.708 E4.70540
G1 X54.381 Y75.232 E4.71688
G1 X54.428 Y75.198 E4.71775
G1 X54.698 Y75.478 F12000.000
G1 X55.168 Y75.188 F900.000 E4.72608
G1 X55.648 Y74.928 E4.73431
G1 X56.408 Y74.628 E4.74663
G1 X56.928 Y74.478 E4.75479
G1 X57.458 Y74.368 E4.76296
G1 X58.008 Y74.298 E4.77132
G1 X58.548 Y74.278 E4.77947
G1 X131.438 Y74.278 E5.87876
G1 X131.978 Y74.298 E5.88691
G1 X132.258 Y74.328 E5.89116
G1 X133.058 Y74.478 E5.90344
G1 X133.838 Y74.718 E5.91574
G1 X134.338 Y74.928 E5.92392
G1 X134.818 Y75.188 E5.93216
G1 X135.288 Y75.478 E5.94048
G1 X135.928 Y75.978 E5.95273
G1 X136.508 Y76.558 E5.96510
G1 X136.848 Y76.978 E5.97325
G1 X137.158 Y77.428 E5.98149
G1 X137.558 Y78.148 E5.99392
G1 X137.768 Y78.648 E6.00210
G1 X137.938 Y79.168 E6.01035
G1 X138.068 Y79.698 E6.01858
G1 X138.158 Y80.228 E6.02668
G1 X138.188 Y80.508 E6.03093
G1 X138.208 Y81.048 E6.03908
G1 X138.208 Y108.938 E6.45971
G1 X138.188 Y109.478 E6.46786
G1 X138.118 Y110.028 E6.47622
G1 X137.938 Y110.818 E6.48844
G1 X137.668 Y111.588 E6.50074
G1 X137.428 Y112.088 E6.50911
G1 X137.008 Y112.788 E6.52142
G1 X136.508 Y113.428 E6.53367
G1 X135.928 Y114.008 E6.54604
G1 X135.508 Y114.348 E6.55419
G1 X135.058 Y114.658 E6.56243
G1 X134.588 Y114.928 E6.57060
G1 X134.088 Y115.168 E6.57897
G1 X133.578 Y115.358 E6.58718
G1 X133.058 Y115.508 E6.59534
G1 X132.528 Y115.618 E6.60350
G1 X131.978 Y115.688 E6.61186
G1 X131.438 Y115.708 E6.62001
G1 X58.548 Y115.708 E7.71931
G1 X58.008 Y115.688 E7.72746
G1 X57.728 Y115.658 E7.73171
G1 X56.928 Y115.508 E7.74398
G1 X56.148 Y115.268 E7.75629
G1 X55.648 Y115.058 E7.76447
G1 X55.168 Y114.798 E7.77270
G1 X54.698 Y114.508 E7.78103
G1 X54.058 Y114.008 E7.79328
G1 X53.478 Y113.428 E7.80565
G1 X53.138 Y113.008 E7.81380
G1 X52.828 Y112.558 E7.82204
G1 X52.428 Y111.838 E7.83446
G1 X52.218 Y111.338 E7.84264
G1 X52.048 Y110.818 E7.85089
G1 X51.918 Y110.288 E7.85912
G1 X51.828 Y109.758 E7.86723
G1 X51.798 Y109.478 E7.87148
G1 X51.778 Y108.938 E7.87963
G1 X51.778 Y81.048 E8.30025
G1 X51.798 Y80.508 E8.30840
G1 X51.918 Y79.698 E8.32075
G1 X52.128 Y78.908 E8.33308
G1 X52.428 Y78.148 E8.34540
G1 X52.688 Y77.668 E8.35363
G1 X52.978 Y77.198 E8.36196
G1 X53.478 Y76.558 E8.37421
G1 X54.058 Y75.978 E8.38658
G1 X54.651 Y75.512 E8.39796
G1 X54.698 Y75.478 E8.39883
G1 X54.838 Y75.848 F12000.000
G1 X55.508 Y75.428 F900.000 E8.41076
G1 X55.988 Y75.198 E8.41878
G1 X56.478 Y75.008 E8.42671
G1 X56.978 Y74.858 E8.43458
G1 X57.498 Y74.748 E8.44260
G1 X57.758 Y74.708 E8.44657
G1 X58.288 Y74.668 E8.45458
G1 X131.698 Y74.668 E9.56172
G1 X132.228 Y74.708 E9.56974
G1 X133.008 Y74.858 E9.58171
G1 X133.758 Y75.098 E9.59359
G1 X134.238 Y75.308 E9.60149
G1 X134.478 Y75.428 E9.60554
G1 X134.928 Y75.698 E9.61345
G1 X135.568 Y76.178 E9.62552
G1 X135.758 Y76.348 E9.62936
G1 X136.308 Y76.918 E9.64131
G1 X136.788 Y77.558 E9.65338
G1 X137.058 Y78.008 E9.66129
G1 X137.178 Y78.248 E9.66534
G1 X137.388 Y78.728 E9.67324
G1 X137.558 Y79.228 E9.68120
G1 X137.738 Y79.998 E9.69313
G1 X137.778 Y80.258 E9.69710
G1 X137.818 Y80.788 E9.70511
G1 X137.818 Y109.198 E10.13358
G1 X137.798 Y109.468 E10.13766
G1 X137.738 Y109.988 E10.14556
G1 X137.558 Y110.758 E10.15748
G1 X137.388 Y111.258 E10.16545
G1 X137.058 Y111.978 E10.17739
G1 X136.638 Y112.648 E10.18932
G1 X136.308 Y113.068 E10.19737
G1 X135.758 Y113.638 E10.20932
G1 X135.358 Y113.978 E10.21724
G1 X134.928 Y114.288 E10.22523
G1 X134.478 Y114.558 E10.23315
G1 X133.758 Y114.888 E10.24509
G1 X133.258 Y115.058 E10.25306
G1 X132.748 Y115.188 E10.26099
G1 X132.228 Y115.278 E10.26895
G1 X131.698 Y115.318 E10.27697
G1 X58.288 Y115.318 E11.38411
G1 X57.758 Y115.278 E11.39212
G1 X56.978 Y115.128 E11.40410
G1 X56.228 Y114.888 E11.41598
G1 X55.748 Y114.678 E11.42388
G1 X55.508 Y114.558 E11.42793
G1 X55.058 Y114.288 E11.43584
G1 X54.418 Y113.808 E11.44791
G1 X54.228 Y113.638 E11.45175
G1 X53.678 Y113.068 E11.46370
G1 X53.198 Y112.428 E11.47576
G1 X52.928 Y111.978 E11.48368
G1 X52.808 Y111.738 E11.48772
G1 X52.598 Y111.258 E11.49563
G1 X52.428 Y110.758 E11.50359
G1 X52.248 Y109.988 E11.51552
G1 X52.208 Y109.728 E11.51948
G1 X52.168 Y109.198 E11.52750
G1 X52.168 Y80.788 E11.95597
G1 X52.208 Y80.258 E11.96398
G1 X52.298 Y79.738 E11.97194
G1 X52.428 Y79.228 E11.97988
G1 X52.598 Y78.728 E11.98784
G1 X52.928 Y78.008 E11.99979
G1 X53.348 Y77.338 E12.01171
G1 X53.678 Y76.918 E12.01977
G1 X54.228 Y76.348 E12.03172
G1 X54.792 Y75.883 E12.04274
G1 X54.838 Y75.848 E12.04361
G1 F1800.000 E11.04361
G92 E0
G1 X59.325 Y81.825 F12000.000
G1 F1800.000 E1.00000
G1 X85.675 Y81.825 F900.000 E1.39741
G1 X85.675 Y108.175 E1.79481
G1 X59.325 Y108.175 E2.19222
G1 X59.325 Y81.882 E2.58875
G1 X59.325 Y81.825 E2.58962
G1 X58.940 Y81.440 F12000.000
G1 X86.060 Y81.440 F900.000 E2.99864
G1 X86.060 Y108.560 E3.40765
G1 X58.940 Y108.560 E3.81667
G1 X58.940 Y81.498 E4.22481
G1 X58.940 Y81.440 E4.22568
G1 X58.555 Y81.055 F12000.000
G1 X86.445 Y81.055 F900.000 E4.64630
G1 X86.445 Y108.945 E5.06693
G1 X58.555 Y108.945 E5.48755
G1 X58.555 Y81.113 E5.90730
G1 X58.555 Y81.055 E5.90817
G1 X58.748 Y80.722 F12000.000
G1 F1800.000 E4.90817
G92 E0
G1 X130.675 Y108.175 F12000.000
G1 F1800.000 E1.00000
G1 X104.325 Y108.175 F900.000 E1.39741
G1 X104.325 Y81.825 E1.79481
G1 X130.675 Y81.825 E2.19222
G1 X130.675 Y108.117 E2.58875
G1 X130.675 Y108.175 E2.58962
G1 X131.060 Y108.560 F12000.000
G1 X103.940 Y108.560 F900.000 E2.99864
G1 X103.940 Y81.440 E3.40765
G1 X131.060 Y81.440 E3.81667
G1 X131.060 Y108.502 E4.22481
G1 X131.060 Y108.560 E4.22568
G1 X131.445 Y108.945 F12000.000
G1 X103.555 Y108.945 F900.000 E4.64630
G1 X103.555 Y81.055 E5.06693
G1 X131.445 Y81.055 E5.48755
G1 X131.445 Y108.887 E5.90730
G1 X131.445 Y108.945 E5.90817
G1 X131.252 Y109.278 F12000.000
G1 F1800.000 E4.90817
G92 E0
G1 X104.832 Y107.913 F12000.000
G1 F1800.000 E1.00000
G1 X104.587 Y107.668 F1800.000 E1.00523
G1 X104.587 Y107.124 E1.01344
G1 X105.376 Y107.913 E1.03027
G1 X105.921 Y107.913 E1.03848
G1 X104.587 Y106.579 E1.06693
G1 X104.587 Y106.035 E1.07514
G1 X106.465 Y107.913 E1.11519
G1 X107.009 Y107.913 E1.12340
G1 X104.587 Y105.491 E1.17506
G1 X104.587 Y104.947 E1.18327
G1 X107.553 Y107.913 E1.24654
G1 X108.098 Y107.913 E1.25475
G1 X104.587 Y104.402 E1.32964
G1 X104.587 Y103.858 E1.33785
G1 X108.642 Y107.913 E1.42434
G1 X109.186 Y107.913 E1.43254
G1 X104.587 Y103.314 E1.53064
G1 X104.587 Y102.769 E1.53885
G1 X109.731 Y107.913 E1.64856
G1 X110.275 Y107.913 E1.65677
G1 X104.587 Y102.225 E1.77809
G1 X104.587 Y101.681 E1.78630
G1 X110.819 Y107.913 E1.91922
G1 X111.363 Y107.913 E1.92743
G1 X104.587 Y101.137 E2.07197
G1 X104.587 Y100.592 E2.08018
G1 X111.908 Y107.913 E2.23632
G1 X112.452 Y107.913 E2.24453
G1 X104.587 Y100.048 E2.41228
G1 X104.587 Y99.504 E2.42049
G1 X112.996 Y107.913 E2.59985
G1 X113.541 Y107.913 E2.60806
G1 X104.587 Y98.959 E2.79903
G1 X104.587 Y98.415 E2.80724
G1 X114.085 Y107.913 E3.00982
G1 X114.629 Y107.913 E3.01803
G1 X104.587 Y97.871 E3.23222
G1 X104.587 Y97.327 E3.24043
G1 X115.173 Y107.913 E3.46622
G1 X115.718 Y107.913 E3.47443
G1 X104.587 Y96.782 E3.71184
G1 X104.587 Y96.238 E3.72005
G1 X116.262 Y107.913 E3.96907
G1 X116.806 Y107.913 E3.97727
G1 X104.587 Y95.694 E4.23790
G1 X104.587 Y95.150 E4.24611
G1 X117.350 Y107.913 E4.51834
G1 X117.895 Y107.913 E4.52655
G1 X104.587 Y94.605 E4.81039
G1 X104.587 Y94.061 E4.81860
G1 X118.439 Y107.913 E5.11405
G1 X118.983 Y107.913 E5.12226
G1 X104.587 Y93.517 E5.42932
G1 X104.587 Y92.973 E5.43753
G1 X119.527 Y107.913 E5.75620
G1 X120.072 Y107.913 E5.76441
G1 X104.587 Y92.428 E6.09469
G1 X104.587 Y91.884 E6.10289
G1 X120.616 Y107.913 E6.44478
G1 X121.160 Y107.913 E6.45299
G1 X104.587 Y91.340 E6.80648
G1 X104.587 Y90.795 E6.81469
G1 X121.705 Y107.913 E7.17980
G1 X122.249 Y107.913 E7.18801
G1 X104.587 Y90.251 E7.56472
G1 X104.587 Y89.707 E7.57293
G1 X122.793 Y107.913 E7.96126
G1 X123.337 Y107.913 E7.96946
G1 X104.587 Y89.163 E8.36939
G1 X104.587 Y88.618 E8.37760
G1 X123.882 Y107.913 E8.78914
G1 X124.426 Y107.913 E8.79735
G1 X104.587 Y88.074 E9.22050
G1 X104.587 Y87.530 E9.22871
G1 X124.970 Y107.913 E9.66347
G1 X125.514 Y107.913 E9.67168
G1 X104.587 Y86.985 E10.11805
G1 X104.587 Y86.441 E10.12625
G1 X126.059 Y107.913 E10.58423
G1 X126.603 Y107.913 E10.59244
G1 X104.587 Y85.897 E11.06202
G1 X104.587 Y85.353 E11.07023
G1 X127.147 Y107.913 E11.55143
G1 X127.692 Y107.913 E11.55964
G1 X104.587 Y84.808 E12.05244
G1 X104.587 Y84.264 E12.06065
G1 X128.236 Y107.913 E12.56506
G1 X128.780 Y107.913 E12.57327
G1 X104.587 Y83.720 E13.08929
G1 X104.587 Y83.176 E13.09750
G1 X129.324 Y107.913 E13.62513
G1 X129.869 Y107.913 E13.63334
G1 X104.587 Y82.631 E14.17258
G1 X104.587 Y82.087 E14.18079
G1 X130.413 Y107.913 E14.73163
G1 X130.413 Y107.369 E14.73984
G1 X105.131 Y82.087 E15.27908
G1 X105.676 Y82.087 E15.28729
G1 X130.413 Y106.824 E15.81492
G1 X130.413 Y106.280 E15.82312
G1 X106.220 Y82.087 E16.33914
G1 X106.764 Y82.087 E16.34735
G1 X130.413 Y105.736 E16.85176
G1 X130.413 Y105.192 E16.85997
G1 X107.308 Y82.087 E17.35278
G1 X107.853 Y82.087 E17.36099
G1 X130.413 Y104.647 E17.84218
G1 X130.413 Y104.103 E17.85039
G1 X108.397 Y82.087 E18.31997
G1 X108.941 Y82.087 E18.32818
G1 X130.413 Y103.559 E18.78616
G1 X130.413 Y103.014 E18.79437
G1 X109.485 Y82.087 E19.24074
G1 X110.030 Y82.087 E19.24894
G1 X130.413 Y102.470 E19.68370
G1 X130.413 Y101.926 E19.69191
G1 X110.574 Y82.087 E20.11506
G1 X111.118 Y82.087 E20.12327
G1 X130.413 Y101.382 E20.53481
G1 X130.413 Y100.837 E20.54302
G1 X111.663 Y82.087 E20.94295
G1 X112.207 Y82.087 E20.95116
G1 X130.413 Y100.293 E21.33948
G1 X130.413 Y99.749 E21.34769
G1 X112.751 Y82.087 E21.72440
G1 X113.295 Y82.087 E21.73261
G1 X130.413 Y99.205 E22.09772
G1 X130.413 Y98.660 E22.10592
G1 X113.840 Y82.087 E22.45942
G1 X114.384 Y82.087 E22.46763
G1 X130.413 Y98.116 E22.80952
G1 X130.413 Y97.572 E22.81772
G1 X114.928 Y82.087 E23.14800
G1 X115.473 Y82.087 E23.15621
G1 X130.413 Y97.027 E23.47488
G1 X130.413 Y96.483 E23.48309
G1 X116.017 Y82.087 E23.79015
G1 X116.561 Y82.087 E23.79836
G1 X130.413 Y95.939 E24.09381
G1 X130.413 Y95.395 E24.10202
G1 X117.105 Y82.087 E24.38586
G1 X117.650 Y82.087 E24.39407
G1 X130.413 Y94.850 E24.66630
G1 X130.413 Y94.306 E24.67451
G1 X118.194 Y82.087 E24.93514
G1 X118.738 Y82.087 E24.94335
G1 X130.413 Y93.762 E25.19236
G1 X130.413 Y93.218 E25.20057
G1 X119.282 Y82.087 E25.43798
G1 X119.827 Y82.087 E25.44618
G1 X130.413 Y92.673 E25.67198
G1 X130.413 Y92.129 E25.68019
G1 X120.371 Y82.087 E25.89438
G1 X120.915 Y82.087 E25.90259
G1 X130.413 Y91.585 E26.10517
G1 X130.413 Y91.041 E26.11337
G1 X121.459 Y82.087 E26.30435
G1 X122.004 Y82.087 E26.31256
G1 X130.413 Y90.496 E26.49192
G1 X130.413 Y89.952 E26.50013
G1 X122.548 Y82.087 E26.66788
G1 X123.092 Y82.087 E26.67609
G1 X130.413 Y89.408 E26.83223
G1 X130.413 Y88.863 E26.84044
G1 X123.637 Y82.087 E26.98498
G1 X124.181 Y82.087 E26.99318
G1 X130.413 Y88.319 E27.12611
G1 X130.413 Y87.775 E27.13432
G1 X124.725 Y82.087 E27.25564
G1 X125.269 Y82.087 E27.26385
G1 X130.413 Y87.231 E27.37355
G1 X130.413 Y86.686 E27.38176
G1 X125.814 Y82.087 E27.47986
G1 X126.358 Y82.087 E27.48807
G1 X130.413 Y86.142 E27.57456
G1 X130.413 Y85.598 E27.58277
G1 X126.902 Y82.087 E27.65765
G1 X127.446 Y82.087 E27.66586
G1 X130.413 Y85.054 E27.72913
G1 X130.413 Y84.509 E27.73734
G1 X127.991 Y82.087 E27.78900
G1 X128.535 Y82.087 E27.79721
G1 X130.413 Y83.965 E27.83727
G1 X130.413 Y83.421 E27.84548
G1 X129.079 Y82.087 E27.87392
G1 X129.624 Y82.087 E27.88213
G1 X130.413 Y82.876 E27.89897
G1 X130.413 Y82.332 E27.90718
G1 X130.168 Y82.087 E27.91240
G1 F1800.000 E26.91240
G92 E0
G1 X59.832 Y107.913 F12000.000
G1 F1800.000 E1.00000
G1 X59.587 Y107.668 F1800.000 E1.00523
G1 X59.587 Y107.124 E1.01344
G1 X60.376 Y107.913 E1.03027
G1 X60.921 Y107.913 E1.03848
G1 X59.587 Y106.579 E1.06693
G1 X59.587 Y106.035 E1.07514
G1 X61.465 Y107.913 E1.11519
G1 X62.009 Y107.913 E1.12340
G1 X59.587 Y105.491 E1.17506
G1 X59.587 Y104.946 E1.18327
G1 X62.554 Y107.913 E1.24655
G1 X63.098 Y107.913 E1.25476
G1 X59.587 Y104.402 E1.32964
G1 X59.587 Y103.858 E1.33785
G1 X63.642 Y107.913 E1.42434
G1 X64.186 Y107.913 E1.43255
G1 X59.587 Y103.314 E1.53065
G1 X59.587 Y102.769 E1.53886
G1 X64.731 Y107.913 E1.64856
G1 X65.275 Y107.913 E1.65677
G1 X59.587 Y102.225 E1.77809
G1 X59.587 Y101.681 E1.78630
G1 X65.819 Y107.913 E1.91923
G1 X66.363 Y107.913 E1.92743
G1 X59.587 Y101.137 E2.07197
G1 X59.587 Y100.592 E2.08018
G1 X66.908 Y107.913 E2.23632
G1 X67.452 Y107.913 E2.24453
G1 X59.587 Y100.048 E2.41228
G1 X59.587 Y99.504 E2.42049
G1 X67.996 Y107.913 E2.59985
G1 X68.541 Y107.913 E2.60806
G1 X59.587 Y98.959 E2.79903
G1 X59.587 Y98.415 E2.80724
G1 X69.085 Y107.913 E3.00982
G1 X69.629 Y107.913 E3.01803
G1 X59.587 Y97.871 E3.23222
G1 X59.587 Y97.327 E3.24043
G1 X70.173 Y107.913 E3.46623
G1 X70.718 Y107.913 E3.47444
G1 X59.587 Y96.782 E3.71184
G1 X59.587 Y96.238 E3.72005
G1 X71.262 Y107.913 E3.96907
G1 X71.806 Y107.913 E3.97728
G1 X59.587 Y95.694 E4.23790
G1 X59.587 Y95.150 E4.24611
G1 X72.350 Y107.913 E4.51835
G1 X72.895 Y107.913 E4.52655
G1 X59.587 Y94.605 E4.81040
G1 X59.587 Y94.061 E4.81860
G1 X73.439 Y107.913 E5.11406
G1 X73.983 Y107.913 E5.12226
