; generated by Slic3r 0.9.7 on 2012-11-29 at 11:46:12

; layer_height = 0.25
; perimeters = 3
; top_solid_layers = 3
; bottom_solid_layers = 3
; fill_density = 0.2
; perimeter_speed = 30
; infill_speed = 60
; travel_speed = 200
; scale = 1
; nozzle_diameter = 0.35
; filament_diameter = 2.85
; extrusion_multiplier = 1
; perimeters extrusion width = 0.39mm
; infill extrusion width = 0.39mm
; first layer extrusion width = 0.39mm

M190 S60 ; wait for bed temperature to be reached
M104 S175 ; set temperature
G28 ; home all axes
M109 S175 ; wait for temperature to be reached
G90 ; use absolute coordinates
G21 ; set units to millimeters
G92 E0
M82 ; use absolute distances for extrusion
G1 F1800.000 E-1.00000
G92 E0
G1 Z0.250 F12000.000
G1 X80.040 Y80.230
G1 F1800.000 E1.00000
G1 X80.430 Y79.850 F900.000 E1.00821
G1 X81.070 Y79.340 E1.02055
G1 X81.300 Y79.180 E1.02478
G1 X81.770 Y78.900 E1.03303
G1 X82.260 Y78.660 E1.04126
G1 X83.030 Y78.370 E1.05367
G1 X83.560 Y78.220 E1.06198
G1 X84.370 Y78.080 E1.07437
G1 X84.920 Y78.040 E1.08269
G1 X105.070 Y78.040 E1.38658
G1 X105.620 Y78.080 E1.39490
G1 X106.430 Y78.220 E1.40730
G1 X106.700 Y78.290 E1.41150
G1 X107.220 Y78.460 E1.41975
G1 X107.730 Y78.660 E1.42802
G1 X108.220 Y78.900 E1.43625
G1 X108.690 Y79.180 E1.44450
G1 X109.140 Y79.500 E1.45282
G1 X109.760 Y80.040 E1.46522
G1 X110.140 Y80.430 E1.47344
G1 X110.650 Y81.070 E1.48578
G1 X110.810 Y81.300 E1.49000
G1 X111.090 Y81.770 E1.49825
G1 X111.330 Y82.260 E1.50648
G1 X111.620 Y83.030 E1.51889
G1 X111.770 Y83.560 E1.52720
G1 X111.910 Y84.370 E1.53960
G1 X111.950 Y84.920 E1.54791
G1 X111.950 Y105.070 E1.85181
G1 X111.910 Y105.620 E1.86012
G1 X111.770 Y106.430 E1.87252
G1 X111.700 Y106.700 E1.87673
G1 X111.530 Y107.220 E1.88498
G1 X111.330 Y107.730 E1.89324
G1 X111.090 Y108.220 E1.90147
G1 X110.810 Y108.690 E1.90972
G1 X110.490 Y109.140 E1.91805
G1 X109.950 Y109.760 E1.93045
G1 X109.560 Y110.140 E1.93866
G1 X108.920 Y110.650 E1.95100
G1 X108.690 Y110.810 E1.95523
G1 X108.220 Y111.090 E1.96348
G1 X107.730 Y111.330 E1.97171
G1 X106.960 Y111.620 E1.98412
G1 X106.430 Y111.770 E1.99242
G1 X105.620 Y111.910 E2.00482
G1 X105.070 Y111.950 E2.01314
G1 X84.920 Y111.950 E2.31703
G1 X84.370 Y111.910 E2.32535
G1 X83.560 Y111.770 E2.33774
G1 X83.290 Y111.700 E2.34195
G1 X82.770 Y111.530 E2.35020
G1 X82.260 Y111.330 E2.35846
G1 X81.770 Y111.090 E2.36669
G1 X81.300 Y110.810 E2.37494
G1 X80.850 Y110.490 E2.38327
G1 X80.230 Y109.950 E2.39567
G1 X79.850 Y109.560 E2.40388
G1 X79.340 Y108.920 E2.41623
G1 X79.180 Y108.690 E2.42045
G1 X78.900 Y108.220 E2.42870
G1 X78.660 Y107.730 E2.43693
G1 X78.370 Y106.960 E2.44934
G1 X78.220 Y106.430 E2.45765
G1 X78.080 Y105.620 E2.47004
G1 X78.040 Y105.070 E2.47836
G1 X78.040 Y84.920 E2.78225
G1 X78.080 Y84.370 E2.79057
G1 X78.220 Y83.560 E2.80297
G1 X78.290 Y83.290 E2.80718
G1 X78.460 Y82.770 E2.81543
G1 X78.660 Y82.260 E2.82369
G1 X78.900 Y81.770 E2.83192
G1 X79.180 Y81.300 E2.84017
G1 X79.500 Y80.850 E2.84850
G1 X80.000 Y80.272 E2.86003
G1 X80.040 Y80.230 E2.86090
G1 X80.310 Y80.500 F12000.000
G1 X80.700 Y80.120 F900.000 E2.86911
G1 X81.340 Y79.620 E2.88136
G1 X82.040 Y79.200 E2.89367
G1 X82.540 Y78.960 E2.90203
G1 X83.050 Y78.770 E2.91024
G1 X83.840 Y78.560 E2.92257
G1 X84.650 Y78.440 E2.93492
G1 X85.190 Y78.420 E2.94307
G1 X104.800 Y78.420 E3.23882
G1 X105.340 Y78.440 E3.24697
G1 X105.890 Y78.510 E3.25533
G1 X106.420 Y78.620 E3.26349
G1 X107.200 Y78.860 E3.27580
G1 X107.700 Y79.070 E3.28398
G1 X108.180 Y79.330 E3.29221
G1 X108.650 Y79.620 E3.30054
G1 X109.290 Y80.120 E3.31279
G1 X109.490 Y80.310 E3.31695
G1 X109.870 Y80.700 E3.32516
G1 X110.370 Y81.340 E3.33741
G1 X110.790 Y82.040 E3.34972
G1 X111.030 Y82.540 E3.35809
G1 X111.220 Y83.050 E3.36630
G1 X111.430 Y83.840 E3.37862
G1 X111.550 Y84.650 E3.39097
G1 X111.570 Y85.190 E3.39912
G1 X111.570 Y104.800 E3.69487
G1 X111.550 Y105.340 E3.70302
G1 X111.480 Y105.890 E3.71138
G1 X111.370 Y106.420 E3.71955
G1 X111.220 Y106.940 E3.72771
G1 X111.030 Y107.450 E3.73592
G1 X110.790 Y107.950 E3.74428
G1 X110.520 Y108.420 E3.75246
G1 X110.210 Y108.870 E3.76070
G1 X109.870 Y109.290 E3.76885
G1 X109.290 Y109.870 E3.78122
G1 X108.870 Y110.210 E3.78937
G1 X108.420 Y110.520 E3.79761
G1 X107.700 Y110.920 E3.81003
G1 X107.200 Y111.130 E3.81821
G1 X106.420 Y111.370 E3.83052
G1 X105.620 Y111.520 E3.84279
G1 X105.340 Y111.550 E3.84704
G1 X104.800 Y111.570 E3.85519
G1 X85.190 Y111.570 E4.15094
G1 X84.650 Y111.550 E4.15909
G1 X84.100 Y111.480 E4.16745
G1 X83.570 Y111.370 E4.17561
G1 X82.790 Y111.130 E4.18792
G1 X82.290 Y110.920 E4.19610
G1 X81.810 Y110.660 E4.20433
G1 X81.340 Y110.370 E4.21266
G1 X80.700 Y109.870 E4.22491
G1 X80.500 Y109.680 E4.22907
G1 X80.120 Y109.290 E4.23728
G1 X79.620 Y108.650 E4.24953
G1 X79.200 Y107.950 E4.26184
G1 X78.960 Y107.450 E4.27021
G1 X78.770 Y106.940 E4.27842
G1 X78.560 Y106.150 E4.29075
G1 X78.440 Y105.340 E4.30309
G1 X78.420 Y104.800 E4.31124
G1 X78.420 Y85.190 E4.60699
G1 X78.440 Y84.650 E4.61514
G1 X78.510 Y84.100 E4.62350
G1 X78.620 Y83.570 E4.63167
G1 X78.860 Y82.790 E4.64398
G1 X79.070 Y82.290 E4.65216
G1 X79.330 Y81.810 E4.66039
G1 X79.620 Y81.340 E4.66872
G1 X80.120 Y80.700 E4.68097
G1 X80.270 Y80.542 E4.68426
G1 X80.310 Y80.500 E4.68513
G1 X80.490 Y80.870 F12000.000
G1 X81.060 Y80.320 F900.000 E4.69707
G1 X81.480 Y79.990 E4.70513
G1 X82.150 Y79.570 E4.71705
G1 X82.390 Y79.450 E4.72110
G1 X82.870 Y79.240 E4.72900
G1 X83.620 Y79.000 E4.74088
G1 X84.400 Y78.850 E4.75286
G1 X84.930 Y78.810 E4.76087
G1 X105.060 Y78.810 E5.06447
G1 X105.590 Y78.850 E5.07248
G1 X106.110 Y78.940 E5.08044
G1 X106.620 Y79.070 E5.08838
G1 X107.120 Y79.240 E5.09634
G1 X107.840 Y79.570 E5.10829
G1 X108.290 Y79.840 E5.11620
G1 X108.720 Y80.150 E5.12420
G1 X109.120 Y80.490 E5.13211
G1 X109.670 Y81.060 E5.14406
G1 X110.000 Y81.480 E5.15212
G1 X110.420 Y82.150 E5.16404
G1 X110.540 Y82.390 E5.16809
G1 X110.750 Y82.870 E5.17599
G1 X110.990 Y83.620 E5.18787
G1 X111.140 Y84.400 E5.19985
G1 X111.180 Y84.930 E5.20786
G1 X111.180 Y105.060 E5.51145
G1 X111.140 Y105.590 E5.51947
G1 X111.050 Y106.110 E5.52743
G1 X110.920 Y106.620 E5.53537
G1 X110.750 Y107.120 E5.54333
G1 X110.420 Y107.840 E5.55528
G1 X110.000 Y108.510 E5.56720
G1 X109.670 Y108.930 E5.57526
G1 X109.120 Y109.500 E5.58720
G1 X108.720 Y109.840 E5.59512
G1 X108.290 Y110.150 E5.60311
G1 X107.840 Y110.420 E5.61103
G1 X107.600 Y110.540 E5.61508
G1 X107.120 Y110.750 E5.62298
G1 X106.370 Y110.990 E5.63485
G1 X105.590 Y111.140 E5.64683
G1 X105.060 Y111.180 E5.65485
G1 X84.930 Y111.180 E5.95844
G1 X84.400 Y111.140 E5.96646
G1 X83.880 Y111.050 E5.97442
G1 X83.370 Y110.920 E5.98235
G1 X82.870 Y110.750 E5.99032
G1 X82.150 Y110.420 E6.00226
G1 X81.700 Y110.150 E6.01018
G1 X81.270 Y109.840 E6.01817
G1 X80.870 Y109.500 E6.02609
G1 X80.320 Y108.930 E6.03804
G1 X79.990 Y108.510 E6.04609
G1 X79.570 Y107.840 E6.05802
G1 X79.450 Y107.600 E6.06206
G1 X79.240 Y107.120 E6.06997
G1 X79.000 Y106.370 E6.08184
G1 X78.850 Y105.590 E6.09382
G1 X78.810 Y105.060 E6.10184
G1 X78.810 Y84.930 E6.40543
G1 X78.850 Y84.400 E6.41344
G1 X78.940 Y83.880 E6.42140
G1 X79.070 Y83.370 E6.42934
G1 X79.240 Y82.870 E6.43731
G1 X79.570 Y82.150 E6.44925
G1 X79.840 Y81.700 E6.45717
G1 X80.150 Y81.270 E6.46516
G1 X80.452 Y80.913 E6.47221
G1 X80.490 Y80.870 E6.47308
G1 F1800.000 E5.47308
G92 E0
G1 X87.202 Y89.003 F12000.000
G1 F1800.000 E1.00000
G1 X87.657 Y88.673 F900.000 E1.00847
G1 X88.170 Y88.445 E1.01694
G1 X88.719 Y88.328 E1.02541
G1 X89.281 Y88.328 E1.03388
G1 X89.830 Y88.445 E1.04235
G1 X90.343 Y88.673 E1.05082
G1 X90.798 Y89.003 E1.05930
G1 X91.174 Y89.421 E1.06777
G1 X91.454 Y89.907 E1.07624
G1 X91.628 Y90.441 E1.08471
G1 X91.687 Y91.000 E1.09318
G1 X91.628 Y91.559 E1.10165
G1 X91.454 Y92.093 E1.11012
G1 X91.174 Y92.579 E1.11859
G1 X91.057 Y92.709 E1.12123
G1 X90.798 Y92.997 E1.12706
G1 X90.343 Y93.327 E1.13553
G1 X89.830 Y93.555 E1.14400
G1 X89.281 Y93.672 E1.15247
G1 X88.719 Y93.672 E1.16094
G1 X88.170 Y93.555 E1.16942
G1 X87.657 Y93.327 E1.17789
G1 X87.202 Y92.997 E1.18636
G1 X86.826 Y92.579 E1.19483
G1 X86.546 Y92.093 E1.20330
G1 X86.372 Y91.559 E1.21177
G1 X86.313 Y91.000 E1.22024
G1 X86.372 Y90.441 E1.22871
G1 X86.546 Y89.907 E1.23718
G1 X86.826 Y89.421 E1.24565
G1 X87.164 Y89.046 E1.25325
G1 X87.202 Y89.003 E1.25412
G1 X87.461 Y89.291 F12000.000
G1 X87.850 Y89.008 F900.000 E1.26137
G1 X88.289 Y88.813 E1.26862
G1 X88.760 Y88.713 E1.27588
G1 X89.240 Y88.713 E1.28313
G1 X89.711 Y88.813 E1.29038
G1 X90.150 Y89.008 E1.29763
G1 X90.539 Y89.291 E1.30488
G1 X90.860 Y89.648 E1.31213
G1 X91.101 Y90.065 E1.31938
G1 X91.249 Y90.522 E1.32663
G1 X91.300 Y91.000 E1.33388
G1 X91.249 Y91.478 E1.34113
G1 X91.178 Y91.698 E1.34462
G1 X91.101 Y91.935 E1.34838
G1 X90.860 Y92.352 E1.35563
G1 X90.539 Y92.709 E1.36288
G1 X90.150 Y92.992 E1.37013
G1 X89.711 Y93.187 E1.37739
G1 X89.240 Y93.287 E1.38464
G1 X88.760 Y93.287 E1.39189
G1 X88.289 Y93.187 E1.39914
G1 X87.850 Y92.992 E1.40639
G1 X87.461 Y92.709 E1.41364
G1 X87.140 Y92.352 E1.42089
G1 X86.899 Y91.935 E1.42814
G1 X86.751 Y91.478 E1.43539
G1 X86.700 Y91.000 E1.44264
G1 X86.751 Y90.522 E1.44989
G1 X86.899 Y90.065 E1.45714
G1 X87.140 Y89.648 E1.46439
G1 X87.423 Y89.334 E1.47077
G1 X87.461 Y89.291 E1.47164
G1 F1800.000 E0.47164
G92 E0
G1 X92.372 Y90.441 F12000.000
G1 F1800.000 E1.00000
G1 X92.546 Y89.907 F900.000 E1.00847
G1 X92.826 Y89.421 E1.01694
G1 X93.202 Y89.003 E1.02541
G1 X93.529 Y88.766 E1.03150
G1 X93.657 Y88.673 E1.03388
G1 X94.170 Y88.445 E1.04235
G1 X94.719 Y88.328 E1.05082
G1 X95.281 Y88.328 E1.05930
G1 X95.830 Y88.445 E1.06777
G1 X96.343 Y88.673 E1.07624
G1 X96.798 Y89.003 E1.08471
G1 X97.174 Y89.421 E1.09318
G1 X97.454 Y89.907 E1.10165
G1 X97.628 Y90.441 E1.11012
G1 X97.687 Y91.000 E1.11859
G1 X97.668 Y91.174 E1.12123
G1 X97.628 Y91.559 E1.12706
G1 X97.454 Y92.093 E1.13553
G1 X97.174 Y92.579 E1.14400
G1 X96.798 Y92.997 E1.15247
G1 X96.343 Y93.327 E1.16094
G1 X95.830 Y93.555 E1.16942
G1 X95.281 Y93.672 E1.17789
G1 X94.719 Y93.672 E1.18636
G1 X94.170 Y93.555 E1.19483
G1 X93.657 Y93.327 E1.20330
G1 X93.202 Y92.997 E1.21177
G1 X92.826 Y92.579 E1.22024
G1 X92.546 Y92.093 E1.22871
G1 X92.372 Y91.559 E1.23718
G1 X92.313 Y91.000 E1.24565
G1 X92.366 Y90.499 E1.25325
G1 X92.372 Y90.441 E1.25412
G1 X92.751 Y90.522 F12000.000
G1 X92.899 Y90.065 F900.000 E1.26137
G1 X93.140 Y89.648 E1.26862
G1 X93.461 Y89.291 E1.27588
G1 X93.755 Y89.078 E1.28135
G1 X93.850 Y89.008 E1.28313
G1 X94.289 Y88.813 E1.29038
G1 X94.760 Y88.713 E1.29763
G1 X95.240 Y88.713 E1.30488
G1 X95.711 Y88.813 E1.31213
G1 X96.150 Y89.008 E1.31938
G1 X96.539 Y89.291 E1.32663
G1 X96.860 Y89.648 E1.33388
G1 X97.101 Y90.065 E1.34113
G1 X97.249 Y90.522 E1.34838
G1 X97.300 Y91.000 E1.35563
G1 X97.286 Y91.134 E1.35766
G1 X97.249 Y91.478 E1.36288
G1 X97.101 Y91.935 E1.37013
G1 X96.860 Y92.352 E1.37739
G1 X96.539 Y92.709 E1.38464
G1 X96.150 Y92.992 E1.39189
G1 X95.711 Y93.187 E1.39914
G1 X95.240 Y93.287 E1.40639
G1 X94.760 Y93.287 E1.41364
G1 X94.289 Y93.187 E1.42089
G1 X93.850 Y92.992 E1.42814
G1 X93.461 Y92.709 E1.43539
G1 X93.140 Y92.352 E1.44264
G1 X92.899 Y91.935 E1.44989
G1 X92.751 Y91.478 E1.45714
G1 X92.700 Y91.000 E1.46439
G1 X92.745 Y90.579 E1.47077
G1 X92.751 Y90.522 E1.47164
G1 F1800.000 E0.47164
G92 E0
G1 X98.313 Y91.000 F12000.000
G1 F1800.000 E1.00000
G1 X98.372 Y90.441 F900.000 E1.00847
G1 X98.546 Y89.907 E1.01694
G1 X98.826 Y89.421 E1.02541
G1 X99.202 Y89.003 E1.03388
G1 X99.657 Y88.673 E1.04235
G1 X100.170 Y88.445 E1.05082
G1 X100.719 Y88.328 E1.05930
G1 X101.281 Y88.328 E1.06777
G1 X101.830 Y88.445 E1.07624
G1 X102.343 Y88.673 E1.08471
G1 X102.485 Y88.776 E1.08735
G1 X102.798 Y89.003 E1.09318
G1 X103.174 Y89.421 E1.10165
G1 X103.454 Y89.907 E1.11012
G1 X103.628 Y90.441 E1.11859
G1 X103.687 Y91.000 E1.12706
G1 X103.628 Y91.559 E1.13553
G1 X103.454 Y92.093 E1.14400
G1 X103.174 Y92.579 E1.15247
G1 X102.798 Y92.997 E1.16094
G1 X102.343 Y93.327 E1.16942
G1 X101.830 Y93.555 E1.17789
G1 X101.281 Y93.672 E1.18636
G1 X100.719 Y93.672 E1.19483
G1 X100.170 Y93.555 E1.20330
G1 X99.657 Y93.327 E1.21177
G1 X99.202 Y92.997 E1.22024
G1 X98.826 Y92.579 E1.22871
G1 X98.546 Y92.093 E1.23718
G1 X98.372 Y91.559 E1.24565
G1 X98.319 Y91.057 E1.25325
G1 X98.313 Y91.000 E1.25412
G1 X98.700 Y91.000 F12000.000
G1 X98.751 Y90.522 F900.000 E1.26137
G1 X98.899 Y90.065 E1.26862
G1 X99.140 Y89.648 E1.27588
G1 X99.461 Y89.291 E1.28313
G1 X99.850 Y89.008 E1.29038
G1 X100.289 Y88.813 E1.29763
G1 X100.760 Y88.713 E1.30488
G1 X101.240 Y88.713 E1.31213
G1 X101.711 Y88.813 E1.31938
G1 X102.150 Y89.008 E1.32663
G1 X102.259 Y89.087 E1.32866
G1 X102.539 Y89.291 E1.33388
G1 X102.860 Y89.648 E1.34113
G1 X103.101 Y90.065 E1.34838
G1 X103.249 Y90.522 E1.35563
G1 X103.300 Y91.000 E1.36288
G1 X103.249 Y91.478 E1.37013
G1 X103.101 Y91.935 E1.37739
G1 X102.860 Y92.352 E1.38464
G1 X102.539 Y92.709 E1.39189
G1 X102.150 Y92.992 E1.39914
G1 X101.711 Y93.187 E1.40639
G1 X101.240 Y93.287 E1.41364
G1 X100.760 Y93.287 E1.42089
G1 X100.289 Y93.187 E1.42814
G1 X99.850 Y92.992 E1.43539
G1 X99.461 Y92.709 E1.44264
G1 X99.140 Y92.352 E1.44989
G1 X98.899 Y91.935 E1.45714
G1 X98.751 Y91.478 E1.46439
G1 X98.706 Y91.057 E1.47077
G1 X98.700 Y91.000 E1.47164
G1 F1800.000 E0.47164
G92 E0
G1 X100.170 Y96.445 F12000.000
G1 F1800.000 E1.00000
G1 X100.719 Y96.328 F900.000 E1.00847
G1 X101.281 Y96.328 E1.01694
G1 X101.830 Y96.445 E1.02541
G1 X102.343 Y96.673 E1.03388
G1 X102.798 Y97.003 E1.04235
G1 X103.174 Y97.421 E1.05082
G1 X103.454 Y97.907 E1.05930
G1 X103.628 Y98.441 E1.06777
G1 X103.687 Y99.000 E1.07624
G1 X103.628 Y99.559 E1.08471
G1 X103.544 Y99.817 E1.08881
G1 X103.454 Y100.093 E1.09318
G1 X103.174 Y100.579 E1.10165
G1 X102.798 Y100.997 E1.11012
G1 X102.343 Y101.327 E1.11859
G1 X101.830 Y101.555 E1.12706
G1 X101.281 Y101.672 E1.13553
G1 X100.719 Y101.672 E1.14400
G1 X100.170 Y101.555 E1.15247
G1 X99.657 Y101.327 E1.16094
G1 X99.202 Y100.997 E1.16942
G1 X98.826 Y100.579 E1.17789
G1 X98.546 Y100.093 E1.18636
G1 X98.372 Y99.559 E1.19483
G1 X98.313 Y99.000 E1.20330
G1 X98.372 Y98.441 E1.21177
G1 X98.546 Y97.907 E1.22024
G1 X98.826 Y97.421 E1.22871
G1 X99.202 Y97.003 E1.23718
G1 X99.657 Y96.673 E1.24565
G1 X100.117 Y96.468 E1.25325
G1 X100.170 Y96.445 E1.25412
G1 X100.289 Y96.813 F12000.000
G1 X100.760 Y96.713 F900.000 E1.26137
G1 X101.240 Y96.713 E1.26862
G1 X101.711 Y96.813 E1.27588
G1 X102.150 Y97.008 E1.28313
G1 X102.539 Y97.291 E1.29038
G1 X102.860 Y97.648 E1.29763
G1 X103.101 Y98.065 E1.30488
G1 X103.249 Y98.522 E1.31213
G1 X103.300 Y99.000 E1.31938
G1 X103.249 Y99.478 E1.32663
G1 X103.178 Y99.698 E1.33012
G1 X103.101 Y99.935 E1.33388
G1 X102.860 Y100.352 E1.34113
G1 X102.539 Y100.709 E1.34838
G1 X102.150 Y100.992 E1.35563
G1 X101.711 Y101.187 E1.36288
G1 X101.240 Y101.287 E1.37013
G1 X100.760 Y101.287 E1.37739
G1 X100.289 Y101.187 E1.38464
G1 X99.850 Y100.992 E1.39189
G1 X99.461 Y100.709 E1.39914
G1 X99.140 Y100.352 E1.40639
G1 X98.899 Y99.935 E1.41364
G1 X98.751 Y99.478 E1.42089
G1 X98.700 Y99.000 E1.42814
G1 X98.751 Y98.522 E1.43539
G1 X98.899 Y98.065 E1.44264
G1 X99.140 Y97.648 E1.44989
G1 X99.461 Y97.291 E1.45714
G1 X99.850 Y97.008 E1.46439
G1 X100.237 Y96.836 E1.47077
G1 X100.289 Y96.813 E1.47164
G1 F1800.000 E0.47164
G92 E0
G1 X97.454 Y97.907 F12000.000
G1 F1800.000 E1.00000
G1 X97.628 Y98.441 F900.000 E1.00847
G1 X97.687 Y99.000 E1.01694
G1 X97.628 Y99.559 E1.02541
G1 X97.454 Y100.093 E1.03388
G1 X97.174 Y100.579 E1.04235
G1 X96.798 Y100.997 E1.05082
G1 X96.343 Y101.327 E1.05930
G1 X95.830 Y101.555 E1.06777
G1 X95.281 Y101.672 E1.07624
G1 X94.719 Y101.672 E1.08471
G1 X94.170 Y101.555 E1.09318
G1 X93.657 Y101.327 E1.10165
G1 X93.202 Y100.997 E1.11012
G1 X92.826 Y100.579 E1.11859
G1 X92.546 Y100.093 E1.12706
G1 X92.372 Y99.559 E1.13553
G1 X92.313 Y99.000 E1.14400
G1 X92.372 Y98.441 E1.15247
G1 X92.546 Y97.907 E1.16094
G1 X92.826 Y97.421 E1.16942
G1 X93.202 Y97.003 E1.17789
G1 X93.657 Y96.673 E1.18636
G1 X94.170 Y96.445 E1.19483
G1 X94.719 Y96.328 E1.20330
G1 X95.281 Y96.328 E1.21177
G1 X95.830 Y96.445 E1.22024
G1 X96.343 Y96.673 E1.22871
G1 X96.798 Y97.003 E1.23718
